Default.style/BBQ.svg

<svg xmlns="http://www.w3.org/2000/svg" width="24" height="28" viewBox="0 0 24 28">
  <path fill="gray" d="M6,0 C4,1 2,1 2,3 C2,5 5,6 5,7 C5,8 3.666667,9 3,10 C6,9 7,9 7,7 C7,5 5,4 4,3 C4,2 5.666667,1.333333 6,0 Z M13.5,0 C11.5,1 9.5,1 9.5,3 C9.5,5 12.5,6 12.5,7 C12.5,8 11.166667,9 10.5,10 C13.5,9 14.5,9 14.5,7 C14.5,5 12.5,4 11.5,3 C11.5,2 13.166667,1.333333 13.5,0 Z M21,0 C19,1 17,1 17,3 C17,5 20,6 20,7 C20,8 18.666668,9 18,10 C21,9 22,9 22,7 C22,5 20,4 19,3 C19,2 20.666668,1.333333 21,0 Z M0,12 L0,28 L2,28 L2,24 L22,24 L22,28 L24,28 L24,12 C16,12 8,12 0,12 Z M2,14 L22,14 L22,22 L2,22 L2,14 Z M6,16 C4.8954306,16 4,16.8954306 4,18 C4,19.1045694 4.8954306,20 6,20 C7.1045694,20 8,19.1045694 8,18 C8,16.8954306 7.1045694,16 6,16 Z M12,16 C10.8954306,16 10,16.8954306 10,18 C10,19.1045694 10.8954306,20 12,20 C13.1045694,20 14,19.1045694 14,18 C14,16.8954306 13.1045694,16 12,16 Z M18,16 C16.8954306,16 16,16.8954306 16,18 C16,19.1045694 16.8954306,20 18,20 C19.10457,20 20,19.1045694 20,18 C20,16.8954306 19.10457,16 18,16 Z"/>
</svg>

<svg xmlns="http://www.w3.org/2000/svg" width="24" height="28"><path fill="gray" d="M6 0C4 1 2 1 2 3s3 3 3 4-1.333 2-2 3c3-1 4-1 4-3S5 4 4 3c0-1 1.667-1.667 2-3Zm7.5 0c-2 1-4 1-4 3s3 3 3 4-1.333 2-2 3c3-1 4-1 4-3s-2-3-3-4c0-1 1.667-1.667 2-3ZM21 0c-2 1-4 1-4 3s3 3 3 4-1.333 2-2 3c3-1 4-1 4-3s-2-3-3-4c0-1 1.667-1.667 2-3ZM0 12v16h2v-4h20v4h2V12H0Zm2 2h20v8H2v-8Zm4 2a2 2 0 1 0 0 4 2 2 0 0 0 0-4Zm6 0a2 2 0 1 0 0 4 2 2 0 0 0 0-4Zm6 0a2 2 0 1 0 0 4 2 2 0 0 0 0-4Z"/></svg>
